client/public/img/game/shared/emotes/satisfied_face.svg

<?xml version="1.0" encoding="UTF-8" standalone="no"?>
<!-- Created with Inkscape (http://www.inkscape.org/) -->

<svg
   width="84"
   height="84"
   viewBox="0 0 22.225 22.225"
   version="1.1"
   id="svg1"
   xml:space="preserve"
   xmlns="http://www.w3.org/2000/svg"
   xmlns:svg="http://www.w3.org/2000/svg"><defs
     id="defs1" /><g
     id="g832"
     transform="scale(0.65625006)"><g
       id="path10-3"
       style="opacity:1"><path
         style="baseline-shift:baseline;display:inline;overflow:visible;vector-effect:none;fill:#584d00;stroke-linecap:round;stroke-linejoin:round;paint-order:markers stroke fill;enable-background:accumulate;stop-color:#000000;stop-opacity:1"
         d="M 16.933594,0 C 7.5999775,0 0,7.5999775 0,16.933594 c 0,9.333616 7.5999775,16.933593 16.933594,16.933593 9.333616,0 16.933593,-7.599977 16.933593,-16.933593 C 33.867187,7.5999775 26.26721,0 16.933594,0 Z m 0,3.1074219 c 7.654101,0 13.826172,6.1720706 13.826172,13.8261721 0,7.654101 -6.172071,13.826172 -13.826172,13.826172 -7.6541015,0 -13.8261721,-6.172071 -13.8261721,-13.826172 0,-7.6541015 6.1720706,-13.8261721 13.8261721,-13.8261721 z"
         id="path1" /><path
         style="baseline-shift:baseline;display:inline;overflow:visible;vector-effect:none;fill:#ffc703;stroke-linecap:round;stroke-linejoin:round;paint-order:markers stroke fill;enable-background:accumulate;stop-color:#000000;stop-opacity:1"
         d="M 32.312824,16.933332 A 15.379492,15.379492 0 0 1 16.933332,32.312824 15.379492,15.379492 0 0 1 1.5538406,16.933332 15.379492,15.379492 0 0 1 16.933332,1.5538406 15.379492,15.379492 0 0 1 32.312824,16.933332 Z"
         id="path2" /></g><ellipse
       style="fill:#584d00;fill-opacity:1;fill-rule:nonzero;stroke:none;stroke-width:2.30102;stroke-linecap:round;stroke-linejoin:bevel;stroke-miterlimit:4;stroke-dasharray:none;stroke-dashoffset:0;stroke-opacity:1;paint-order:markers stroke fill"
       id="path5010-19"
       cx="10.937675"
       cy="17.774376"
       rx="1.3762937"
       ry="1.1385875" /><ellipse
       cy="22.928991"
       cx="-17.774376"
       id="circle5014-4"
       style="fill:#584d00;fill-opacity:1;fill-rule:nonzero;stroke:none;stroke-width:2.30102;stroke-linecap:round;stroke-linejoin:bevel;stroke-miterlimit:4;stroke-dasharray:none;stroke-dashoffset:0;stroke-opacity:1;paint-order:markers stroke fill"
       transform="rotate(-90)"
       rx="1.1385875"
       ry="1.3762937" /><path
       style="baseline-shift:baseline;display:inline;overflow:visible;vector-effect:none;fill:#584d00;stroke-linecap:round;stroke-linejoin:round;stroke-dashoffset:19.953;enable-background:accumulate;stop-color:#000000;stop-opacity:1;opacity:1"
       d="m 28.306641,19.806641 a 1.004105,1.004105 0 0 0 -0.75586,0.128906 c -6.762586,4.248606 -15.906173,3.642117 -21.2011716,0.02148 A 1.004105,1.004105 0 0 0 4.953125,20.21875 1.004105,1.004105 0 0 0 5.2167969,21.613281 c 6.0748161,4.153859 15.8934161,4.738981 23.4023441,0.02148 A 1.004105,1.004105 0 0 0 28.933594,20.25 1.004105,1.004105 0 0 0 28.306641,19.806641 Z"
       id="path5224" /></g><style
     type="text/css"
     id="style16758">
	.st0{fill:#FFC300;stroke:#695000;stroke-width:13;stroke-miterlimit:10;}
	.st1{fill:#FFC300;stroke:#695000;stroke-width:13;stroke-linecap:round;stroke-miterlimit:10;}
</style><style
     type="text/css"
     id="style16758-4">
	.st0{fill:#FFC300;stroke:#695000;stroke-width:13;stroke-miterlimit:10;}
	.st1{fill:#FFC300;stroke:#695000;stroke-width:13;stroke-linecap:round;stroke-miterlimit:10;}
</style><style
     type="text/css"
     id="style16758-5">
	.st0{fill:#FFC300;stroke:#695000;stroke-width:13;stroke-miterlimit:10;}
	.st1{fill:#FFC300;stroke:#695000;stroke-width:13;stroke-linecap:round;stroke-miterlimit:10;}
</style><style
     type="text/css"
     id="style16758-9">
	.st0{fill:#FFC300;stroke:#695000;stroke-width:13;stroke-miterlimit:10;}
	.st1{fill:#FFC300;stroke:#695000;stroke-width:13;stroke-linecap:round;stroke-miterlimit:10;}
</style><path
     style="opacity:1;fill:none;fill-opacity:1;stroke:#584d00;stroke-width:1.15914;stroke-linecap:round;stroke-linejoin:round;stroke-dasharray:none;stroke-dashoffset:0.639495;stroke-opacity:1"
     d="M 5.1559599,11.120396 H 9.1997404"
     id="path6550" /><path
     style="opacity:1;fill:none;fill-opacity:1;stroke:#584d00;stroke-width:1.15914;stroke-linecap:round;stroke-linejoin:round;stroke-dasharray:none;stroke-dashoffset:0.639495;stroke-opacity:1"
     d="m 13.02526,11.120396 h 4.043783"
     id="path6714" /></svg>

<svg xmlns="http://www.w3.org/2000/svg" xml:space="preserve" width="84" height="84" viewBox="0 0 22.225 22.225"><g transform="scale(.65625)"><g style="opacity:1"><path d="M16.934 0C7.6 0 0 7.6 0 16.934c0 9.333 7.6 16.933 16.934 16.933 9.333 0 16.933-7.6 16.933-16.933S26.267 0 16.934 0m0 3.107A13.803 13.803 0 0 1 30.76 16.934 13.803 13.803 0 0 1 16.934 30.76 13.803 13.803 0 0 1 3.107 16.934 13.803 13.803 0 0 1 16.934 3.107" style="baseline-shift:baseline;display:inline;overflow:visible;vector-effect:none;fill:#584d00;stroke-linecap:round;stroke-linejoin:round;paint-order:markers stroke fill;stop-color:#000;stop-opacity:1"/><path d="M32.313 16.933a15.38 15.38 0 0 1-15.38 15.38 15.38 15.38 0 0 1-15.38-15.38 15.38 15.38 0 0 1 15.38-15.38 15.38 15.38 0 0 1 15.38 15.38" style="baseline-shift:baseline;display:inline;overflow:visible;vector-effect:none;fill:#ffc703;stroke-linecap:round;stroke-linejoin:round;paint-order:markers stroke fill;stop-color:#000;stop-opacity:1"/></g><ellipse cx="10.938" cy="17.774" rx="1.376" ry="1.139" style="fill:#584d00;fill-opacity:1;fill-rule:nonzero;stroke:none;stroke-width:2.30102;stroke-linecap:round;stroke-linejoin:bevel;stroke-miterlimit:4;stroke-dasharray:none;stroke-dashoffset:0;stroke-opacity:1;paint-order:markers stroke fill"/><ellipse cx="-17.774" cy="22.929" rx="1.139" ry="1.376" style="fill:#584d00;fill-opacity:1;fill-rule:nonzero;stroke:none;stroke-width:2.30102;stroke-linecap:round;stroke-linejoin:bevel;stroke-miterlimit:4;stroke-dasharray:none;stroke-dashoffset:0;stroke-opacity:1;paint-order:markers stroke fill" transform="rotate(-90)"/><path d="M28.307 19.807a1 1 0 0 0-.756.129c-6.763 4.248-15.906 3.642-21.201.021a1.004 1.004 0 0 0-1.397.262 1.004 1.004 0 0 0 .264 1.394c6.075 4.154 15.893 4.74 23.402.022a1.004 1.004 0 0 0 .315-1.385 1 1 0 0 0-.627-.443" style="baseline-shift:baseline;display:inline;overflow:visible;vector-effect:none;fill:#584d00;stroke-linecap:round;stroke-linejoin:round;stroke-dashoffset:19.953;stop-color:#000;stop-opacity:1;opacity:1"/></g><path d="M5.156 11.12H9.2M13.025 11.12h4.044" style="opacity:1;fill:none;fill-opacity:1;stroke:#584d00;stroke-width:1.15914;stroke-linecap:round;stroke-linejoin:round;stroke-dasharray:none;stroke-dashoffset:.639495;stroke-opacity:1"/></svg>
